X:1
T:The Deserter
M:3/4
L:1/4
K:G
 A,| D3/2- ^C/2B,/2 B,/2| A, D A| G FE/2-D/2| C B, A,/2A,/2| D3/2- ^C/2 B,|\
 A, D A/2A/2| GF/2-D/2 E| D2 A/2A/2| G3/2 A/2B/2 B/2| A/2A/2 D A| G FE/2-D/2|\
 C- B, A,| D3/2 ^C/2 B,| A, D A| GF/2-D/2 E| D2||
